X: 139037
Q: "Irish Jig."
M: 6/8
L: 1/8
K: Em
e3 edB | d3 dBd | e3 edB | dBA ABd |\
e3 edB | ded def | g3 geg | dBA A2 :|
|: uB |\


